src/status/16/element-desktop-tray.svg

<svg width="16" height="16" viewBox="0 0 16 16" xmlns="http://www.w3.org/2000/svg">
 <path d="m7.070312 2.183594c-0.386718 0-0.699218 0.308594-0.699218 0.695312 0 0.386719 0.3125 0.699219 0.699218 0.699219 1.796876 0 3.257813 1.457031 3.257813 3.257813 0 0.386718 0.3125 0.699218 0.699219 0.699218 0.382812 0 0.695312-0.3125 0.695312-0.699218 0-2.570313-2.082031-4.652344-4.652344-4.652344zm-0.234374 2.09375c-2.570313 0-4.652344 2.082031-4.652344 4.652344 0 0.386718 0.308594 0.699218 0.695312 0.699218 0.386719 0 0.699219-0.3125 0.699219-0.699218 0-1.796876 1.457031-3.257813 3.257813-3.257813 0.386718 0 0.699218-0.3125 0.699218-0.699219 0-0.382812-0.3125-0.695312-0.699218-0.695312zm6.285156 2.09375c-0.386719 0-0.699219 0.3125-0.699219 0.699218 0 1.796876-1.457031 3.257813-3.257813 3.257813-0.386718 0-0.699218 0.3125-0.699218 0.699219 0 0.382812 0.3125 0.695312 0.699218 0.695312 2.570313 0 4.652344-2.082031 4.652344-4.652344 0-0.386718-0.308594-0.699218-0.695312-0.699218zm-8.148438 2.09375c-0.382812 0-0.695312 0.3125-0.695312 0.699218 0 2.570313 2.082031 4.652344 4.652344 4.652344 0.386718 0 0.699218-0.308594 0.699218-0.695312 0-0.386719-0.3125-0.699219-0.699218-0.699219-1.796876 0-3.257813-1.457031-3.257813-3.257813 0-0.386718-0.3125-0.699218-0.699219-0.699218z" fill="rgb(18.039216%, 20.392157%, 25.098041%)"/>
</svg>

<svg xmlns="http://www.w3.org/2000/svg" xmlns:xlink="http://www.w3.org/1999/xlink" width="16" height="16" viewBox="0 0 16 16">
<path fill-rule="nonzero" fill="rgb(18.039216%, 20.392157%, 25.098041%)" fill-opacity="1" d="M 7.070312 2.183594 C 6.683594 2.183594 6.371094 2.492188 6.371094 2.878906 C 6.371094 3.265625 6.683594 3.578125 7.070312 3.578125 C 8.867188 3.578125 10.328125 5.035156 10.328125 6.835938 C 10.328125 7.222656 10.640625 7.535156 11.027344 7.535156 C 11.410156 7.535156 11.722656 7.222656 11.722656 6.835938 C 11.722656 4.265625 9.640625 2.183594 7.070312 2.183594 Z M 6.835938 4.277344 C 4.265625 4.277344 2.183594 6.359375 2.183594 8.929688 C 2.183594 9.316406 2.492188 9.628906 2.878906 9.628906 C 3.265625 9.628906 3.578125 9.316406 3.578125 8.929688 C 3.578125 7.132812 5.035156 5.671875 6.835938 5.671875 C 7.222656 5.671875 7.535156 5.359375 7.535156 4.972656 C 7.535156 4.589844 7.222656 4.277344 6.835938 4.277344 Z M 13.121094 6.371094 C 12.734375 6.371094 12.421875 6.683594 12.421875 7.070312 C 12.421875 8.867188 10.964844 10.328125 9.164062 10.328125 C 8.777344 10.328125 8.464844 10.640625 8.464844 11.027344 C 8.464844 11.410156 8.777344 11.722656 9.164062 11.722656 C 11.734375 11.722656 13.816406 9.640625 13.816406 7.070312 C 13.816406 6.683594 13.507812 6.371094 13.121094 6.371094 Z M 4.972656 8.464844 C 4.589844 8.464844 4.277344 8.777344 4.277344 9.164062 C 4.277344 11.734375 6.359375 13.816406 8.929688 13.816406 C 9.316406 13.816406 9.628906 13.507812 9.628906 13.121094 C 9.628906 12.734375 9.316406 12.421875 8.929688 12.421875 C 7.132812 12.421875 5.671875 10.964844 5.671875 9.164062 C 5.671875 8.777344 5.359375 8.464844 4.972656 8.464844 Z M 4.972656 8.464844 "/>
</svg>
